X:760
T:North of the Grampians
R:Strathspey
C:Capt. Simon Fraser
B:The Athole Collection
M:C
L:1/8
K:C
F|E>FG>A GE c2|E/F/G G>c c<e d2|E>FG>A F<E E>G|F>DB,>G, B,/C/D F:|
f|e>c e/f/g e<c c>f|e<c c>f (3efg (3fga|e>c e/f/g e<c c>e|f>dB>G B/c/d f2|
e>c e/f/g e<c c>f|e<c c>f (3efg (3fga|(3gfe (3dcB (3cBA (3GFE|
F>DB,>G, B,/C/D F||

